X: 275
T: Benton's Dream
C:Benton Flippen (1920-2011, Mt. Airy, N.C.)
B: canberra pickers and fiddlers
B: tunes
M:4/4
L:1/8
R: reel
Q: 1/4=100
K:Am
V:1 
|:"A"a2 ab age^f|"G"g2 ga g^fed|"A"e2e2e2e2|edc2 A2AB|
[E2c2] "A"cd cBAc|"E"BABc BAGE|"A"(A4 A)GEG|[1 AGAB cdeg:|2 [E8A8]||
|:"G"[G,2G2] [G,G][G,G] [G,2G2] [G,G][G,G]|"G"[G,2G2] [G,G][G,G] [G,2G2] [G,G][G,G]|"A"[G,2G2] [G,G][G,G] [G,2G2] [G,G][G,G]|
"E"[G,2G2] [G,G][G,G] [G,2G2] [G,G][G,G]|"A"A8|e2e2 edc2|(A4 A)GEG|A8:||
% abcbook-tune_id 63ae8f1c083353f1a08d7235
% abcbook-tune_composer_id 
% abcbook-link-0 https://www.youtube.com/watch?v=N7fjVjLsiXU
% abcbook-link-title-0 Benton Flippen - Benton&#39;s Dream
% abcbook-boost 0
% abcbook-difficulty 0
% abcbook-tags canberra pickers and fiddlers,old time tunes,steve ryan,© free
% abcbook-tablature 
% abcbook-transpose 
% abcbook-tuning GDAE
% abcbook-lastupdated 1675153950262
% abcbook-src-url https://tunebook.net/scrape/tunes.abc
% abcbook-soundfonts 
% abcbook-repeats 1


